X: 21943
T: Kitty Got A Clinking Coming From The Fair
R: hornpipe
M: 4/4
K: Gmajor
GB~B2 cdec|dBGA BA~A2|GB~B2 cdec|dBGB A2G2|
GB~B2 cdec|dBGA BA~A2|c3B cege|dBGB A2G2||
G2Bd ~g3d|fedB deg2|G2Bd ~g3d|egdB A2G2|
G2Bd ~g3d|e2dB dega|bgaf gfed|egdB A2G2||

